X: 147109
T: HIGHLAND PIBROCH
%R: jig
B: James Kerr "Merry Melodies" v.1 p.47 s.1 #9
Z: 2016 John Chambers <jc:trillian.mit.edu>
M: 6/8
L: 1/8
K: Am
|:\
ve3 uA2uB | edB ABd | e3 A2B | dBG ABd |\
e3 A2B | edB ABd | e<eg d<dg | dBG ABd :|
|:\
e<AB ue2ud | e<AB e2d | e<AB e<Ae | dBG ABd |\
e<AB e2d | e<AB e2d | e<eg d<dg | dBG ABd :|

%%sep 1 1 500
%%sep 1 1 500

